!! 00000] TT[WS
!!!OTL: Dongshan diao
!!!ARE: Asia, China, Shanxi Lishi
!! Ethnic Group: Han
!! WII, 82 (1)
!!!SCT: J0522
!!!YEM: Copyright 1995, estate of Helmut Schaffrath.
**kern
*ICvox
*Ivox
*M2/4
*k[f#]
*G:
{8dd
8dd
8b
8dd
=1
8ee
8dd
4a
=2
8dd
8ee
8dd
8b
=3
8a
8g
4d}
=4
{8g
8a
8b
8dd
=5
8a
8b
4d
=6
8g
8g
8a
8e
=7
2d}
==
!!!AGN: Xiaodiao. Qingge, Sichun
!!!ONB: ESAC (Essen Associative Code) Database: CHINA
!!!AMT: simple duple
!!!AIN: vox
!!!EED: Helmut Schaffrath
!!!EEV: 1.0
*-
